X:1
T:Chopin Prelude: Op. 28 No. 20
T:Chopin Prelude: Op. 28 No. 20
T:Frédéric Chopin
C:Frederic Chopin
%%score { ( 1 4 ) | ( 2 3 ) }
L:1/8
Q:1/4=40
M:4/4
K:Eb
V:1 treble nm="Piano" snm="Pno."
V:4 treble 
V:2 bass 
V:3 bass 
V:1
"^Largo" ([CEG]2 [CEA]2 [EG]>[DF] [CE]2) | [CE]2 [_DF]2 [CE]>[B,D] z2 | %2
!ff!!<(! (D2 =E2 G>F E2!<)! | D2 [DG]2 [CD^F]2 [=B,DG]2) |!p! ([EGe]2 [EAe]2 [Dd]2 [DGd]2 | %5
 [CGc]2 [CD^Fd]2 [DG=B]>[C=A] [=B,DG]2 | [CGc]2 [A,CA]2 [G,D]2"^riten." [G,C]2 | %7
 [CE]2 [_DF]2 E>=D C2) |!pp! ([EGe]2 [EAe]2 [Dd]2 [DGd]2 | %9
!pp! [CGc]2 [CD^Fd]2 [DG=B]>[C=A] [=B,DG]2 | [CGc]2 [A,CA]2 [G,D]2 [G,C]2 | [CE]2 [_DF]2 E>=D C2) | %12
"_Ped." !fermata![CEGc]8 |] %13
V:2
!ff! [C,,C,]2 [F,,,F,,]2 [G,,,G,,]2 [C,,G,,C,]2 | [A,,,A,,]2 [_D,,,_D,,]2 [E,,,E,,]2 [A,,,A,,]2 | %2
 [G,,,G,,]2 [C,,,C,,]2 [F,,,F,,]2 [C,,C,]2 | [D,,=A,,D,]2 [G,,,G,,]2 [D,,,D,,]2 [G,,,G,,]2 | %4
 ([C,,C,]2 [C,C]2 [=B,,=B,]2 [_B,,_B,]2 | [=A,,=A,]2 [_A,,_A,]2 [G,,G,]2 [F,,F,]2 | %6
 [E,,E,]2 [F,,F,]2 [=B,,,=B,,]2 [C,,C,]2 | [A,,,A,,]2 [_D,,,_D,,]2 [G,,,G,,]2 [C,,,C,,]2) | %8
 ([C,,C,]2 [C,C]2 [=B,,=B,]2 [_B,,_B,]2 | [=A,,=A,]2 [_A,,_A,]2 [G,,G,]2 [F,,F,]2 | %10
 [E,,E,]2 [F,,F,]2!<(! [=B,,,=B,,]2 [C,,C,]2!<)! | [A,,,A,,]2 [_D,,,_D,,]2 [G,,,G,,]2 [C,,,C,,]2) | %12
!ped! !fermata![C,G,]8!ped-up! |] %13
V:3
 G,2 A,2 [G,=B,]2 [E,G,]2 | [E,A,]2 [F,A,]2 [_D,E,G,]2 [C,E,A,C]2 | %2
 [D,F,=B,]2 [=E,G,_B,C]2 [A,C]2 [G,C]2 | [^F,C]2 [G,=B,]2 z4 | x8 | x8 | x8 | %7
 [E,A,]2 [F,A,]2 [F,G,=B,]2 [E,G,]2 | x8 | x8 | x8 | [E,A,]2 [F,A,]2 [F,G,=B,]2 [E,G,]2 | x8 |] %13
V:4
 x8 | x8 | x8 | z4 =B>=A z2 | z4 A>^F x2 | x8 | z4 G>F E2 | x8 | z4 A>^F x2 | x8 | z4 G>F E2 | x8 | %12
 x8 |] %13

